X:119
T:Hut on Staffin Island
M:4/4
L:1/8
S:from Frank Hoppe
K:D
||:"D"D2DF EDDE|FDFA d2c2|"G"B2Bd BAFD|"Emi"E/2E/2EFE DB,"A"A,B,
|"D"D2DF EDDE|FDFA d2c2|"G"B2Bd BAFD|1"A"~E3F "D"D2FE:||2"A"~E3F "D"D2B
c
||"D(Bmi)"d2dc d2ed|"A(F#mi)"cBcd cBcA|"G"BABc d2cB|"D"AFEF "A"ECA2,
|"D(Bmi)"d2dc d2ed|"A(F#mi)"cBcd cBcA|"G"BABc d2cB|"A"AFEF D2Bc
||"D(Bmi)"d2dc d2ed|"A(F#mi)"cBcd cBcA|"G"BABc d2cB|"D"AFDF E/2E/2EFE
|"D"D2DF EDDE|FDFA d2c2|"G"B2Bd BAFD|"A"~E3F D2FE||
